icon-themes/breeze_svg/cmd/32/linetoolbox.svg

<svg viewBox="0 0 32 32" xmlns="http://www.w3.org/2000/svg"><path d="m7 4a3 3 0 0 0 -3 3 3 3 0 0 0 3 3 3 3 0 0 0 2.8261719-2h9.0625001a22 22 0 0 0 -12.888672 20h2a20 20 0 0 1 20-20v-2h-18.1757812a3 3 0 0 0 -2.8242188-2zm0 2a1 1 0 0 1 1 1 1 1 0 0 1 -1 1 1 1 0 0 1 -1-1 1 1 0 0 1 1-1z" fill="#4d4d4d"/></svg>

<svg xmlns="http://www.w3.org/2000/svg" viewBox="0 0 32 32">
 <path 
     style="fill:#4d4d4d" 
     d="M 7 4 A 3 3 0 0 0 4 7 A 3 3 0 0 0 7 10 A 3 3 0 0 0 9.8261719 8 L 18.888672 8 A 22 22 0 0 0 6 28 L 8 28 A 20 20 0 0 1 28 8 L 28 6 L 9.8242188 6 A 3 3 0 0 0 7 4 z M 7 6 A 1 1 0 0 1 8 7 A 1 1 0 0 1 7 8 A 1 1 0 0 1 6 7 A 1 1 0 0 1 7 6 z "
     />
</svg>
